src/svg/cited.svg

<svg width="30" height="22" viewBox="0 0 30 22" fill="none" xmlns="http://www.w3.org/2000/svg">
<path d="M13.651 6.68357C13.651 7.04056 13.651 7.37772 13.651 7.69504C13.6598 7.71364 13.6644 7.73396 13.6644 7.75454C13.6644 7.77512 13.6598 7.79545 13.651 7.81404C13.5237 9.23225 13.1827 10.6231 12.6395 11.9393C12.0029 13.5944 11.091 15.13 9.94225 16.481C8.81631 17.8227 7.47599 18.9686 5.97568 19.8724C4.53401 20.7432 2.97896 21.4106 1.35462 21.8557C1.35462 21.8557 4.19072 17.7106 7.14581 13.6647H6.84832C5.53426 13.6697 4.24672 13.2951 3.14046 12.5859C2.03419 11.8767 1.15627 10.8631 0.612216 9.66696C0.068159 8.47081 -0.118883 7.14299 0.0735693 5.84309C0.266022 4.54319 0.82978 3.32652 1.69709 2.33933C2.56439 1.35213 3.69834 0.636405 4.96264 0.278179C6.22694 -0.0800474 7.56779 -0.0655328 8.82404 0.319978C10.0803 0.705489 11.1985 1.44559 12.0442 2.45133C12.8899 3.45707 13.4272 4.68566 13.5915 5.98942C13.6299 6.21884 13.6498 6.45097 13.651 6.68357V6.68357Z" fill="#161D39"/>
<path d="M29.9931 6.68366C29.9931 7.04065 29.9931 7.37781 29.9931 7.69514C30.0023 7.73426 30.0023 7.77501 29.9931 7.81414C29.8658 9.23235 29.5248 10.6232 28.9816 11.9394C28.353 13.6001 27.4477 15.1425 26.3041 16.5009C25.1734 17.8214 23.8334 18.947 22.3376 19.8328C20.8773 20.7086 19.3019 21.3762 17.657 21.8161C17.657 21.8161 20.4931 17.6909 23.4482 13.645H23.1507C21.8374 13.6428 20.5526 13.2616 19.4506 12.5471C18.3486 11.8327 17.4762 10.8153 16.9383 9.6172C16.4003 8.41911 16.2195 7.09119 16.4177 5.7929C16.6159 4.4946 17.1846 3.2811 18.0556 2.2981C18.9266 1.31509 20.0627 0.60436 21.3277 0.251237C22.5927 -0.101886 23.9327 -0.0823931 25.1869 0.307376C26.441 0.697145 27.556 1.44062 28.398 2.44855C29.24 3.45647 29.7732 4.686 29.9336 5.98951C29.9719 6.21893 29.9918 6.45106 29.9931 6.68366V6.68366Z" fill="#161D39"/>
</svg>

<svg xmlns="http://www.w3.org/2000/svg" viewBox="0 0 30 22" fill="currentColor">
  <path d="M13.65 6.68V7.7a.14.14 0 010 .11c-.13 1.42-.47 2.81-1.01 4.13a15.73 15.73 0 01-2.7 4.54 15.87 15.87 0 01-3.96 3.4c-1.45.86-3 1.53-4.63 1.98 0 0 2.84-4.15 5.8-8.2h-.3a6.82 6.82 0 116.8-6.98zM30 6.68V7.81c-.13 1.42-.48 2.81-1.02 4.13a15.73 15.73 0 01-2.68 4.56 15.86 15.86 0 01-3.96 3.33 18.29 18.29 0 01-4.68 1.99s2.83-4.13 5.79-8.18h-.3A6.82 6.82 0 1130 6.68z"/>
</svg>
